src/icons/pin.svg

<svg xmlns="http://www.w3.org/2000/svg" width="512" height="512" viewBox="0 0 512 512">
    <path d="M323.7 224.5c-1.1-.4-2.1-.9-3.1-1.4-6.2-3.6-10.9-9.8-12.4-17.1l-16.4-105.1-.2-5.2c0-6.3 3.7-9.1 8.9-11.7l1.9-.8c6.4-3.1 10.8-6.9 10.8-14.6 0-17.9-5.8-19.1-16.2-19.1h-81.6c-10.4 0-16.2 1.1-16.2 19.1 0 7.6 4.3 11.4 10.8 14.6.7.2 1.2.4 1.9.8 5.2 2.6 8.9 5.3 8.9 11.7l-.2 5.2L204.2 206c-1.4 7.4-6.2 13.6-12.4 17.1-1 .7-2.1 1.1-3.1 1.4-17.7 9.1-32.3 27.4-32.3 48.9 0 14.2 3.1 19 13.6 19h72l10.3 157.1h7.1l10.8-157.1h72.1c10.4 0 13.6-4.2 13.6-19 .1-21.5-14.7-39.8-32.2-48.9z"/>
</svg>

<?xml version="1.0" encoding="UTF-8"?>
<svg width="512px" height="512px" viewBox="0 0 512 512" version="1.1" xmlns="http://www.w3.org/2000/svg" xmlns:xlink="http://www.w3.org/1999/xlink">
    <!-- Generator: Sketch 62 (91390) - https://sketch.com -->
    <title>pin</title>
    <desc>Created with Sketch.</desc>
    <g id="pin" stroke="none" stroke-width="1" fill="none" fill-rule="evenodd">
        <path d="M323.7,224.5 C322.6,224.1 321.6,223.6 320.6,223.1 C314.4,219.5 309.7,213.3 308.2,206 L291.8,100.9 L291.6,95.7 C291.6,89.4 295.3,86.6 300.5,84 L302.4,83.2 C308.8,80.1 313.2,76.3 313.2,68.6 C313.2,50.7 307.4,49.5 297,49.5 L215.4,49.5 C205,49.5 199.2,50.6 199.2,68.6 C199.2,76.2 203.5,80 210,83.2 C210.7,83.4 211.2,83.6 211.9,84 C217.1,86.6 220.8,89.3 220.8,95.7 L220.6,100.9 L204.2,206 C202.8,213.4 198,219.6 191.8,223.1 C190.8,223.8 189.7,224.2 188.7,224.5 C171,233.6 156.4,251.9 156.4,273.4 C156.4,287.6 159.5,292.4 170,292.4 L242,292.4 L252.3,449.5 L259.4,449.5 L270.2,292.4 L342.3,292.4 C352.7,292.4 355.900504,288.2 355.900504,273.4 C356,251.9 341.2,233.6 323.7,224.5 L323.7,224.5 Z" id="Path" fill="#000000" fill-rule="nonzero"></path>
    </g>
</svg>
